src/lib/packages/icons/src/assets/line/comment-dots.svg

<svg width="24" height="24" viewBox="0 0 24 24" fill="none" xmlns="http://www.w3.org/2000/svg">
<path d="M3.85693 21.75C3.71193 21.75 3.57111 21.748 3.43311 21.743C2.93311 21.731 2.49497 21.411 2.32397 20.928C2.15197 20.442 2.29408 19.9131 2.68408 19.5811C3.61608 18.8291 3.98892 17.997 4.13892 17.426C2.90192 15.947 2.24902 14.08 2.24902 12.001C2.24902 6.84798 6.25902 3.25 11.999 3.25C17.739 3.25 21.749 6.84898 21.749 12.001C21.749 17.153 17.739 20.752 11.999 20.752C10.812 20.752 9.67398 20.591 8.60498 20.2729C7.24198 21.4599 5.36393 21.75 3.85693 21.75ZM3.47803 20.243C3.48003 20.243 3.48189 20.243 3.48389 20.243C3.48089 20.244 3.47903 20.244 3.47803 20.243ZM12 4.75C7.143 4.75 3.75 7.73198 3.75 12.001C3.75 13.837 4.35498 15.463 5.50098 16.703C5.65598 16.871 5.72692 17.101 5.69092 17.328C5.52292 18.399 4.99511 19.412 4.18311 20.243C5.34311 20.201 6.90304 19.934 7.86304 18.91C8.06404 18.694 8.37603 18.617 8.65503 18.714C9.69003 19.072 10.815 19.2531 12 19.2531C16.857 19.2531 20.25 16.271 20.25 12.002C20.25 7.73295 16.857 4.75 12 4.75ZM13.02 12C13.02 11.448 12.573 11 12.02 11H12.01C11.458 11 11.0149 11.448 11.0149 12C11.0149 12.552 11.468 13 12.02 13C12.572 13 13.02 12.552 13.02 12ZM17.02 12C17.02 11.448 16.573 11 16.02 11H16.01C15.458 11 15.0149 11.448 15.0149 12C15.0149 12.552 15.468 13 16.02 13C16.572 13 17.02 12.552 17.02 12ZM9.02002 12C9.02002 11.448 8.57302 11 8.02002 11H8.01001C7.45801 11 7.01489 11.448 7.01489 12C7.01489 12.552 7.46802 13 8.02002 13C8.57202 13 9.02002 12.552 9.02002 12Z" fill="currentColor"/>
</svg>

<svg xmlns="http://www.w3.org/2000/svg" width="24" height="24" fill="none"><path fill="currentColor" d="M3.857 21.75c-.145 0-.286-.002-.424-.007a1.207 1.207 0 0 1-1.109-.815 1.221 1.221 0 0 1 .36-1.347c.932-.752 1.305-1.584 1.455-2.155-1.237-1.479-1.89-3.346-1.89-5.425 0-5.153 4.01-8.751 9.75-8.751s9.75 3.599 9.75 8.751c0 5.152-4.01 8.751-9.75 8.751-1.187 0-2.325-.161-3.394-.48-1.363 1.188-3.241 1.478-4.748 1.478Zm-.379-1.507h.006-.006ZM12 4.75c-4.857 0-8.25 2.982-8.25 7.251 0 1.836.605 3.462 1.751 4.702a.749.749 0 0 1 .19.625c-.168 1.071-.696 2.084-1.508 2.915 1.16-.042 2.72-.309 3.68-1.333a.748.748 0 0 1 .792-.196c1.035.358 2.16.54 3.345.54 4.857 0 8.25-2.983 8.25-7.252 0-4.27-3.393-7.252-8.25-7.252ZM13.02 12a1 1 0 0 0-1-1h-.01a.996.996 0 0 0-.995 1c0 .552.453 1 1.005 1a1 1 0 0 0 1-1Zm4 0a1 1 0 0 0-1-1h-.01a.996.996 0 0 0-.995 1c0 .552.453 1 1.005 1a1 1 0 0 0 1-1Zm-8 0a1 1 0 0 0-1-1h-.01a.996.996 0 0 0-.995 1c0 .552.453 1 1.005 1a1 1 0 0 0 1-1Z"/></svg>
